img/logo-bbh.svg

<?xml version="1.0" encoding="UTF-8"?>
<svg width="375px" height="290px" viewBox="0 0 375 290" version="1.1" xmlns="http://www.w3.org/2000/svg" xmlns:xlink="http://www.w3.org/1999/xlink">
    <title>logo-bbh</title>
    <g id="logo-bbh" stroke="none" stroke-width="1" fill="none" fill-rule="evenodd">
        <path d="M10.273911,32.1367674 C13.0399822,32.1367674 15.015798,32.1367674 16.596427,32.1367674 C22.5236379,32.1367674 24.1042669,35.605374 24.1042669,39.3408037 C24.1042669,47.345286 18.5721245,47.345286 13.435169,47.345286 L10.273911,47.345286 L10.273911,32.1367674 L10.273911,32.1367674 Z M0,78.0291464 L18.177056,78.0291464 C24.8946405,78.0291464 29.6364092,75.8946201 32.0074118,74.2937166 C33.9831094,72.6928249 37.5395542,68.6905838 37.5395542,62.2869932 C37.5395542,59.8856438 37.1443673,56.9506717 35.1685515,54.0156878 C32.7976672,49.7466354 28.8461538,48.6793663 26.870338,48.412555 C28.8461538,47.345286 34.773483,44.4103139 34.773483,37.4730888 C34.773483,34.0044822 33.192854,31.0694983 30.8218514,29.4686066 C27.6607117,26.5336345 22.5236379,26 17.3866824,26 C12.6449137,26 4.74176872,26.5336345 0,26.5336345 L0,78.0291464 L0,78.0291464 Z M124.912491,224.244922 C130.558476,224.25923 133.6407,224.577916 136.722811,227.179372 C139.093814,229.580722 139.488882,232.515694 139.488882,234.917043 C139.488882,239.452919 137.117998,243.45516 131.585856,245.322863 C134.747114,252.793723 137.908253,257.596409 140.279256,258.93049 C141.859885,259.997759 143.045327,259.997759 144.230769,259.997759 L144.230769,259.997759 L144.230769,260.26457 L143.835582,262.66592 C143.440396,262.932731 143.440396,263.199554 143.440396,263.199554 C143.045327,263.466365 141.069511,264 139.488882,264 C131.981042,264 128.819784,257.863233 124.078016,246.656955 C122.1022,246.923766 120.916758,246.923766 119.336129,246.923766 L119.336129,246.923766 L119.336129,263.199554 L111.433102,263.199554 L111.433102,224.511212 C113.4088,224.511212 123.287642,224.244388 124.473084,224.244388 Z M345.363543,224.511212 L367.887252,251.726453 L367.492101,224.511212 L373.024243,224.511212 L372.629092,262.66592 L368.282404,264 L344.968392,235.450666 L345.363543,263.199554 L339.831401,263.199554 L339.831401,224.511212 L345.363543,224.511212 Z M171.541236,224.244922 C177.205759,224.25923 180.653915,224.577916 183.350834,227.179372 C185.721837,229.580722 186.512092,232.515694 186.512092,234.917043 C186.512092,239.452919 184.141208,243.45516 178.213879,245.322863 C181.375137,252.793723 184.931463,257.596409 186.907279,258.93049 C188.487908,259.997759 190.068537,259.997759 190.858792,259.997759 L190.858792,259.997759 L190.858792,260.26457 L190.463605,262.66592 C190.463605,262.932731 190.463605,263.199554 190.068537,263.199554 C189.67335,263.466365 187.697534,264 186.116905,264 C178.609065,264 175.447807,257.863233 170.706039,246.656955 C168.730223,246.923766 167.544781,246.923766 165.964152,246.923766 L165.964152,246.923766 L165.964152,263.199554 L158.061125,263.199554 L158.061125,224.511212 C160.036823,224.511212 169.915665,224.244388 171.101107,224.244388 Z M310.194945,224.511212 L324.42044,263.199554 L316.122238,263.199554 L312.170713,251.726453 L298.735509,251.726453 L294.783983,263.199554 L288.066387,263.199554 L304.662802,224.511212 L310.194945,224.511212 Z M239.8577,224.511212 L252.107486,252.260088 L264.752376,224.511212 L271.865123,224.511212 L273.050577,263.199554 L265.93783,263.199554 L265.147527,235.717489 L252.502637,262.399096 L248.946263,262.932731 L236.69656,234.65022 L236.301373,263.199554 L230.769231,263.199554 L233.140115,224.511212 L239.8577,224.511212 Z M10.273911,211.437219 L10.273911,232.248882 L32.7976672,232.248882 L32.7976672,211.437219 L42.6765097,211.437219 L42.6765097,263.199554 L32.7976672,263.199554 L32.7976672,238.919284 L10.273911,238.919284 L10.273911,263.199554 L0,263.199554 L0,211.437219 L10.273911,211.437219 Z M81.7965746,224.511212 L96.417304,263.199554 L87.7239037,263.199554 L84.1675772,251.726453 L70.3372213,251.726453 L66.385708,263.199554 L59.6680052,263.199554 L76.2644322,224.511212 L81.7965746,224.511212 Z M212.592175,224.511212 L212.592175,263.199554 L205.084335,263.199554 L205.084335,224.511212 L212.592175,224.511212 Z M77.4499927,232.248882 L72.3129189,246.923766 L82.5869482,246.923766 L77.4499927,232.248882 Z M305.848256,232.248882 L300.316126,246.923766 L310.590096,246.923766 L305.848256,232.248882 Z M123.682829,228.780264 L119.336129,228.780264 L119.336129,242.387891 C123.287642,242.654702 124.473084,242.654702 126.4489,242.12108 C130.005227,241.587445 131.585856,238.919284 131.585856,235.183854 C131.585856,231.181613 129.610158,228.780264 123.682829,228.780264 L123.682829,228.780264 Z M170.310852,228.780264 L165.964152,228.780264 L165.964152,242.387891 C169.915665,242.654702 171.101107,242.654702 173.076923,242.12108 C176.63325,241.587445 178.213879,238.919284 178.213879,235.183854 C178.213879,231.181613 176.238181,228.780264 170.310852,228.780264 L170.310852,228.780264 Z M124.078016,131.125562 C125.263458,131.125562 131.981042,131.392373 136.722811,135.928249 C139.093814,137.795964 143.045327,142.598651 143.045327,150.869956 C143.045327,164.744394 132.771298,171.414796 122.1022,171.414796 C108.271844,171.414796 102.739702,160.742153 102.739702,151.403591 C102.739702,144.466365 105.505773,139.663679 109.457286,136.19506 C114.199173,131.926008 119.336129,131.125562 124.078016,131.125562 Z M317.747819,131.65973 C323.412311,131.674038 326.860512,131.992712 329.557431,134.594168 C331.928351,136.995518 332.718653,139.93049 332.718653,142.331839 C332.718653,146.867715 329.952582,150.869956 324.42044,152.737671 C327.581662,160.208519 330.742885,165.011206 333.113805,166.345286 C334.694422,167.412555 335.879876,167.412555 337.06533,167.412555 L337.06533,167.412555 L337.06533,167.679366 L336.670179,170.080716 C336.670179,170.347527 336.275027,170.61435 336.275027,170.61435 C335.879876,171.147985 333.904107,171.414796 332.323502,171.414796 C324.815603,171.414796 321.654381,165.278029 316.912541,154.338563 L316.912541,154.338563 L312.170713,154.338563 L312.170713,170.61435 L304.662802,170.61435 L304.662802,131.926008 C306.243419,131.926008 316.122238,131.659196 317.307692,131.659196 Z M70.7559216,131.659679 C76.4147443,131.673263 79.4915491,131.989535 82.1917614,134.594168 C84.9578326,136.995518 85.3530194,139.93049 85.3530194,142.331839 C85.3530194,146.867715 82.9820168,150.869956 77.4499927,152.737671 C80.6111324,160.208519 83.7723904,165.011206 86.1432747,166.345286 C87.3287169,167.412555 88.9093459,167.412555 89.6997195,167.412555 L89.6997195,167.412555 L90.0947881,167.679366 L89.3045327,170.080716 L89.3045327,170.080716 L89.3045327,170.61435 C88.5141591,171.147985 86.9336483,171.414796 85.3530194,171.414796 C77.8450612,171.414796 74.2887347,165.278029 69.5468477,154.338563 L69.5468477,154.338563 L65.2001476,154.338563 L65.2001476,170.61435 L57.2971209,170.61435 L57.2971209,131.926008 C58.8777499,131.926008 69.1517792,131.659196 70.3372213,131.659196 Z M364.72603,131.125562 C368.282404,131.125562 372.233941,132.192819 372.629092,132.459642 C373.024243,132.726453 373.024243,132.993277 373.419395,133.526899 L373.814546,136.995518 C373.814546,137.795964 373.814546,137.795964 373.419395,138.062775 L372.233941,138.863233 L371.838777,138.863233 L371.838777,138.863233 C371.443626,138.863233 370.258172,137.795964 369.863021,137.795964 C368.282404,136.995518 366.306647,135.928249 363.540576,135.928249 C359.589039,135.928249 357.613282,137.795964 357.613282,140.730936 C357.613282,143.932731 359.193887,144.733177 365.121181,147.668161 C370.653323,150.603133 375,152.737671 375,159.14125 C375,165.811663 369.467869,171.414796 361.169656,171.414796 C358.403585,171.414796 354.056908,170.61435 351.290837,169.813904 C350.500534,169.547081 350.500534,169.547081 350.500534,168.746635 L350.105383,164.477571 C349.71022,163.943948 349.71022,163.677125 350.105383,163.410314 L351.685988,162.609868 L352.08114,162.609868 L352.08114,162.609868 L353.661757,163.677125 C358.008433,166.078475 360.774505,166.345286 361.959959,166.345286 C366.701798,166.345286 368.282404,163.410314 368.282404,161.008964 C368.282404,157.807169 365.911496,157.006723 361.564807,154.605374 C356.032665,151.937213 350.500534,149.535876 350.500534,142.331839 C350.500534,135.394614 356.427828,131.125562 364.72603,131.125562 Z M214.567991,131.926008 L214.567991,147.401338 L231.559486,147.401338 L231.559486,131.926008 L239.067444,131.926008 L239.067444,170.61435 L231.559486,170.61435 L231.559486,152.470848 L214.567991,152.470848 L214.567991,170.61435 L207.060032,170.61435 L207.060032,131.926008 L214.567991,131.926008 Z M285.695467,131.926008 L285.695467,136.728695 L267.913598,136.728695 L267.913598,147.934972 L283.719699,147.934972 L283.719699,152.737671 L267.913598,152.737671 L267.913598,165.54484 L286.090619,165.54484 L286.090619,170.61435 L260.405687,170.61435 L260.405687,131.926008 L285.695467,131.926008 Z M17.3866824,118.585204 C22.5236379,118.585204 27.6607117,119.118827 30.8218514,121.786999 C33.192854,123.654702 34.773483,126.589686 34.773483,129.791481 C34.773483,136.995518 28.8461538,139.93049 26.870338,140.730936 C28.8461538,141.26457 32.7976672,142.065016 35.1685515,146.600892 C37.1443673,149.269052 37.5395542,152.470848 37.5395542,154.605374 C37.5395542,161.275788 33.9831094,165.278029 32.0074118,166.87892 C29.6364092,168.479824 24.8946405,170.61435 18.177056,170.61435 L18.177056,170.61435 L0,170.61435 L0,119.118827 C4.74176872,119.118827 12.6449137,118.585204 17.3866824,118.585204 Z M191.253979,131.926008 L191.253979,136.995518 L177.423623,136.995518 L177.423623,170.61435 L169.915665,170.61435 L169.915665,136.995518 L156.085309,136.995518 L156.085309,131.926008 L191.253979,131.926008 Z M122.497387,135.928249 C114.594242,135.928249 110.642728,142.865474 110.642728,150.603133 C110.642728,160.742153 116.570058,166.612109 123.287642,166.612109 C127.634342,166.612109 134.747114,163.410314 134.747114,151.937213 C134.747114,141.798205 128.819784,135.928249 122.497387,135.928249 Z M13.6750714,145.800574 L10.273911,145.800446 L10.273911,164.477571 C16.9916138,164.477571 19.7575667,164.477571 22.1285693,163.677125 C25.6848959,162.076234 26.870338,159.14125 26.870338,155.405832 C26.870338,146.067257 20.1527535,145.800446 13.435169,145.800446 Z M69.5468477,136.19506 L65.2001476,136.19506 L65.2001476,149.802687 C69.1517792,150.06951 70.3372213,150.06951 72.3129189,149.802687 C75.8693637,149.002241 77.4499927,146.33408 77.4499927,142.865474 C77.4499927,138.863233 75.4741769,136.19506 69.5468477,136.19506 L69.5468477,136.19506 Z M316.51739,136.19506 L312.170713,136.19506 L312.170713,149.802687 C316.122238,150.06951 317.307692,150.06951 319.283461,149.802687 C323.234986,149.002241 324.42044,146.33408 324.42044,142.865474 C324.42044,138.863233 322.839835,136.19506 316.51739,136.19506 L316.51739,136.19506 Z M16.596427,124.721971 L10.273911,124.721971 L10.273911,139.93049 L13.8640364,139.930318 C18.8751972,139.924314 24.1042669,139.708143 24.1042669,131.926008 C24.1042669,127.923766 22.5236379,124.721971 16.596427,124.721971 L16.596427,124.721971 Z M322.839835,63.3542623 L372.629092,63.3542623 L372.629092,63.3542623 L372.629092,75.0941625 L322.839835,75.0941625 C314.541621,75.3609856 308.614327,84.1659137 306.638571,88.7017893 L306.638571,72.1591904 C311.380399,67.0896802 317.307692,63.0874391 322.839835,63.3542623 Z M248.155949,39.3408037 L270.284506,66.5560575 L269.889355,39.3408037 L275.421497,39.3408037 L275.421497,77.7623232 L270.679657,78.8295922 L247.365646,50.2802699 L247.760797,78.0291464 L242.228655,78.0291464 L242.623806,39.3408037 L248.155949,39.3408037 Z M73.8935479,39.0739924 C80.2160638,39.0739924 83.3772036,39.6076151 86.1432747,42.0089645 C88.5141591,44.4103139 89.3045327,47.345286 89.3045327,49.7466354 C89.3045327,54.282511 86.5384615,58.2847521 81.0063192,60.152467 C84.1675772,67.8901379 87.3287169,72.4260017 89.6997195,73.7600821 C91.2802303,74.8273511 92.4657907,74.8273511 93.6512329,74.8273511 L93.6512329,74.8273511 L93.6512329,75.0941625 L93.2560461,77.4955119 C93.2560461,77.7623232 92.8608592,78.0291464 92.8608592,78.0291464 C92.4657907,78.5627809 90.4899749,78.8295922 88.9093459,78.8295922 C81.401506,78.8295922 78.240248,72.6928249 73.4983611,61.7533587 C71.5226635,62.0201819 70.3372213,62.0201819 68.7565924,61.7533587 L68.7565924,61.7533587 L68.7565924,78.0291464 L61.2486342,78.0291464 L61.2486342,39.3408037 C62.8292632,39.3408037 72.7081057,39.0739924 73.8935479,39.0739924 Z M131.585856,38.5403579 C132.771298,38.5403579 139.488882,39.0739924 144.230769,43.3430448 C146.601654,45.4775711 150.158098,50.0134467 150.158098,58.5515635 C150.158098,72.1591904 139.884069,78.8295922 129.610158,78.8295922 C115.384615,78.8295922 110.24766,68.1569492 110.24766,59.085198 C110.24766,52.1479848 112.618544,47.345286 116.965244,43.609868 C121.707013,39.3408037 126.4489,38.5403579 131.585856,38.5403579 Z M175.447807,39.3408037 L184.536395,68.4237606 L193.624863,39.3408037 L197.971564,39.3408037 L206.664846,68.4237606 L216.14862,39.3408037 L222.866204,39.3408037 L207.850406,78.0291464 L202.318264,78.0291464 L194.415119,52.6816075 L186.116905,78.0291464 L180.584763,78.0291464 L167.149594,39.3408037 L175.447807,39.3408037 Z M129.610158,43.3430448 C122.1022,43.3430448 118.150687,50.5470812 118.150687,58.2847521 C118.150687,68.1569492 124.078016,74.0269052 130.7956,74.0269052 C135.1423,74.0269052 142.254953,70.82511 142.254953,59.3520093 C142.254953,49.2130009 136.327743,43.3430448 129.610158,43.3430448 Z M26.870338,62.8206277 C26.870338,66.5560575 25.6848959,69.4910296 22.1285693,71.0919213 C19.7575667,71.892379 16.9916138,71.892379 10.273911,71.892379 L10.273911,53.215242 L13.9149058,53.2158146 C20.4688304,53.2330905 26.870338,53.7044119 26.870338,62.8206277 Z M322.839835,39.3408037 L372.629092,39.3408037 L372.629092,39.3408037 L372.629092,51.0807157 L322.839835,51.0807157 C314.541621,51.3475271 308.614327,60.152467 306.638571,64.6883426 L306.638571,48.1457318 C311.380399,43.0762335 317.307692,39.0739924 322.839835,39.3408037 Z M73.1032925,43.8766794 L68.7565924,43.8766794 L68.7565924,57.4843063 C72.7081057,57.4843063 73.8935479,57.4843063 75.8693637,57.2174831 C79.820877,56.4170372 81.0063192,53.7488765 81.0063192,50.2802699 C81.0063192,46.2780288 79.4256902,43.8766794 73.1032925,43.8766794 L73.1032925,43.8766794 Z" id="path797" fill="#333333" fill-rule="nonzero"></path>
    </g>
</svg>

<svg xmlns="http://www.w3.org/2000/svg" viewBox="0 0 375 290">
  <path fill="#333" fill-rule="nonzero" d="M10.27 32.14h6.33c5.92 0 7.5 3.47 7.5 7.2 0 8-5.53 8-10.66 8h-3.17v-15.2zM0 78.03h18.18c6.71 0 11.46-2.14 13.83-3.74 1.97-1.6 5.53-5.6 5.53-12 0-2.4-.4-5.34-2.37-8.27a11.02 11.02 0 00-8.3-5.6c1.98-1.07 7.9-4.01 7.9-10.95 0-3.47-1.58-6.4-3.95-8C27.66 26.53 22.52 26 17.4 26c-4.75 0-12.65.53-17.39.53v51.5zm124.91 146.21c5.65.02 8.73.34 11.81 2.94 2.37 2.4 2.77 5.34 2.77 7.74 0 4.53-2.37 8.54-7.9 10.4 3.16 7.47 6.32 12.28 8.69 13.61 1.58 1.07 2.77 1.07 3.95 1.07v.26l-.4 2.4c-.39.27-.39.54-.39.54-.4.27-2.37.8-3.95.8-7.5 0-10.67-6.14-15.41-17.34-1.98.26-3.16.26-4.74.26v16.28h-7.9v-38.69c1.97 0 11.85-.27 13.03-.27zm220.45.27l22.53 27.22-.4-27.22h5.53l-.4 38.16-4.34 1.33-23.31-28.55.4 27.75h-5.54v-38.69h5.53zm-173.82-.27c5.67.02 9.11.34 11.81 2.94a10.96 10.96 0 013.16 7.74c0 4.53-2.37 8.54-8.3 10.4 3.17 7.47 6.72 12.28 8.7 13.61a6.7 6.7 0 003.95 1.07v.26l-.4 2.4c0 .27 0 .54-.4.54-.39.27-2.36.8-3.94.8-7.51 0-10.67-6.14-15.41-17.34a30.7 30.7 0 01-4.75.26v16.28h-7.9v-38.69c1.98 0 11.86-.27 13.04-.27zm138.65.27l14.23 38.69h-8.3l-3.95-11.47h-13.43l-3.96 11.47h-6.71l16.6-38.69h5.52zm-70.33 0l12.25 27.75 12.64-27.75h7.12l1.18 38.69h-7.11l-.8-27.48-12.64 26.68-3.55.53-12.25-28.28-.4 28.55h-5.53l2.37-38.69h6.72zM10.27 211.44v20.8H32.8v-20.8h9.88v51.76H32.8v-24.28H10.27v24.28H0v-51.76h10.27zM81.8 224.5l14.62 38.69h-8.7l-3.55-11.47H70.34l-3.95 11.47h-6.72l16.6-38.69h5.53zm130.8 0v38.69h-7.52v-38.69h7.51zm-135.15 7.74l-5.14 14.67H82.6l-5.14-14.67zm228.4 0l-5.53 14.67h10.27l-4.74-14.67zm-182.17-3.47h-4.34v13.6c3.95.27 5.13.27 7.1-.26 3.57-.53 5.15-3.2 5.15-6.94 0-4-1.98-6.4-7.9-6.4zm46.63 0h-4.35v13.6c3.96.27 5.14.27 7.12-.26 3.55-.53 5.13-3.2 5.13-6.94 0-4-1.97-6.4-7.9-6.4zm-46.23-97.65c1.18 0 7.9.26 12.64 4.8 2.37 1.87 6.33 6.67 6.33 14.94 0 13.87-10.28 20.54-20.95 20.54-13.83 0-19.36-10.67-19.36-20 0-6.94 2.77-11.75 6.72-15.21 4.74-4.27 9.88-5.07 14.62-5.07zm193.67.53c5.66.01 9.11.33 11.8 2.93a10.96 10.96 0 013.17 7.74c0 4.54-2.77 8.54-8.3 10.4 3.16 7.48 6.32 12.28 8.7 13.62a6.11 6.11 0 003.95 1.06v.27l-.4 2.4c0 .27-.4.53-.4.53-.39.54-2.37.8-3.95.8-7.5 0-10.67-6.13-15.4-17.07h-4.75v16.27h-7.5v-38.68c.75 0 3.4-.07 6.1-.13l.73-.02c2.69-.06 5.24-.12 5.8-.12zm-247 0c5.66.01 8.74.33 11.44 2.93 2.77 2.4 3.16 5.34 3.16 7.74 0 4.54-2.37 8.54-7.9 10.4 3.16 7.48 6.32 12.28 8.7 13.62 1.18 1.06 2.76 1.06 3.55 1.06l.4.27-.8 2.4v.53c-.79.54-2.37.8-3.95.8-7.5 0-11.06-6.13-15.8-17.07H65.2v16.27h-7.9v-38.68c1.58 0 11.85-.27 13.04-.27zm293.98-.53c3.55 0 7.5 1.06 7.9 1.33.4.27.4.53.79 1.07l.4 3.47c0 .8 0 .8-.4 1.06l-1.19.8h-.4c-.39 0-1.57-1.06-1.97-1.06-1.58-.8-3.55-1.87-6.32-1.87-3.95 0-5.93 1.87-5.93 4.8 0 3.2 1.58 4 7.51 6.94 5.53 2.93 9.88 5.07 9.88 11.47 0 6.67-5.53 12.27-13.83 12.27-2.77 0-7.11-.8-9.88-1.6-.79-.26-.79-.26-.79-1.06l-.4-4.27c-.39-.54-.39-.8 0-1.07l1.59-.8h.4l1.57 1.07c4.35 2.4 7.11 2.67 8.3 2.67 4.74 0 6.32-2.94 6.32-5.34 0-3.2-2.37-4-6.72-6.4-5.53-2.67-11.06-5.07-11.06-12.28 0-6.94 5.93-11.2 14.23-11.2zm-150.16.8v15.47h16.99v-15.47h7.5v38.68h-7.5v-18.14h-17v18.14h-7.5v-38.68h7.5zm71.13 0v4.8H267.9v11.2h15.81v4.8h-15.8v12.81h18.17v5.07h-25.68v-38.68h25.29zM17.39 118.59c5.13 0 10.27.53 13.43 3.2a10.29 10.29 0 013.95 8c0 7.2-5.92 10.14-7.9 10.94 1.98.53 5.93 1.34 8.3 5.87 1.97 2.67 2.37 5.87 2.37 8 0 6.68-3.56 10.68-5.53 12.28-2.37 1.6-7.12 3.73-13.83 3.73H0v-51.5c4.74 0 12.64-.52 17.39-.52zm173.86 13.34V137h-13.83v33.61h-7.5V137h-13.83v-5.07h35.16zm-68.75 4c-7.9 0-11.86 6.94-11.86 14.67 0 10.14 5.93 16.01 12.65 16.01 4.34 0 11.46-3.2 11.46-14.67 0-10.14-5.93-16.01-12.25-16.01zM13.68 145.8h-3.4v18.68h1.31c5.78 0 8.33-.06 10.54-.8 3.55-1.6 4.74-4.54 4.74-8.27 0-8.45-5.5-9.48-11.52-9.6h-.96l-.95-.01zm55.87-9.6H65.2v13.6c3.95.27 5.14.27 7.11 0 3.56-.8 5.14-3.47 5.14-6.93 0-4-1.98-6.67-7.9-6.67zm246.97 0h-4.35v13.6c3.95.27 5.14.27 7.11 0 3.95-.8 5.14-3.47 5.14-6.93 0-4-1.58-6.67-7.9-6.67zM16.6 124.72h-6.33v15.21h4.67c4.66-.08 9.16-.78 9.16-8 0-4-1.58-7.2-7.5-7.2zm306.24-61.37h49.79V75.1h-49.79c-8.3.27-14.23 9.08-16.2 13.61V72.16c4.74-5.07 10.67-9.07 16.2-8.8zm-74.68-24l22.12 27.2-.4-27.2h5.54v38.41l-4.74 1.07-23.31-28.55.4 27.75h-5.54l.4-38.69h5.53zm-174.27-.28c6.33 0 9.49.54 12.25 2.94a10.96 10.96 0 013.16 7.74c0 4.53-2.76 8.53-8.3 10.4 3.17 7.74 6.33 12.28 8.7 13.61 1.58 1.07 2.77 1.07 3.95 1.07v.26l-.4 2.4c0 .27-.39.54-.39.54-.4.53-2.37.8-3.95.8-7.5 0-10.67-6.14-15.41-17.08-1.98.27-3.16.27-4.74 0v16.28h-7.51V39.34c1.58 0 11.46-.27 12.64-.27zm57.7-.53c1.18 0 7.9.53 12.64 4.8 2.37 2.14 5.93 6.67 5.93 15.21 0 13.6-10.28 20.28-20.55 20.28-14.23 0-19.36-10.67-19.36-19.74 0-6.94 2.37-11.74 6.72-15.48 4.74-4.27 9.48-5.07 14.62-5.07zm43.86.8l9.09 29.08 9.08-29.08h4.35l8.7 29.08 9.48-29.08h6.72l-15.02 38.69h-5.53l-7.9-25.35-8.3 25.35h-5.54l-13.43-38.69h8.3zm-45.84 4c-7.5 0-11.46 7.2-11.46 14.94 0 9.88 5.93 15.75 12.65 15.75 4.34 0 11.45-3.2 11.45-14.68 0-10.14-5.92-16-12.64-16zm-114.5 9.89h.48c5.93.15 11.28 1.25 11.28 9.6 0 3.73-1.19 6.66-4.74 8.26-2.21.75-4.76.8-10.54.8h-1.32V53.22h4.84zm307.73-13.89h49.79v11.74h-49.79c-8.3.27-14.23 9.07-16.2 13.6V48.16c4.74-5.07 10.67-9.08 16.2-8.8zM73.1 43.88h-4.34v13.6h1.1c3.1 0 4.23-.02 6-.26 3.96-.8 5.15-3.47 5.15-6.94 0-4-1.58-6.4-7.9-6.4z"/>
</svg>
